!!!OTL-incipit: Bu hoscht du hin das Zautle lei bes i dir hon gaben ?
!!!ARE: Europa, Mitteleuropa, Deutschland, Gottschee
!!!SCT: D0085
!!!TXL: @@BAR
!!!YEM: Copyright 1995, estate of Helmut Schaffrath.
**kern	**text
*ICvox	*
*M4/4	*
*met(c)	*
*k[b-]	*
*F:	*
{4c	Du
=1	=1
4.cc/	hoscht
8cc/	du
4b-/	hin
4cc/	das
=2	=2
2a	Baut-
4a}	-le,
{4cc/	lei
=3	=3
4.b-/	bes
8b-/	i
4cc/	dir
4b-/	hon
=4	=4
2a/	ge-
4cc/	-ben?
4r}	.
=5	=5
{4.dd	holla-
8dd	.
4ff	-ri-
4dd	-a
=6	=6
4.cc/	hol-
8cc/	-la-
4cc/	-ra-
4ff/}	-ho
=7	=7
{4.ee	hol-
8dd	-la-
4cc/	-ri-
4b-/	-a
=8	=8
2a	-ho.
4r}	.
==	==
!!!AGN: Liebes - Lied
!! Unterstimme in parallelen Terzen, ergaenzt die Skala zur Heptatonik
!!    (Ionisch) ; erste Zeile rhythmisch korrigiert (Pause)
!!    Inzipit = Variante zum Lied; DVA-Signatur 85a
!!!ONB: ESAC (Essen Associative Code) Database: DVA
!!!AMT: simple quadruple
!!!AIN: vox
!!!EED: Helmut Schaffrath
!!!EEV: 1.0
!!!YOR: https://freidok.uni-freiburg.de/data/150373
!!!EFL: A166811
!!!ENC: Anna Maria Matuszewska
!!!EEV: 2025/06/04
*-	*-
